src/assets/img/telega.svg

<svg width="25" height="21" viewBox="0 0 25 21" fill="none" xmlns="http://www.w3.org/2000/svg">
<path fill-rule="evenodd" clip-rule="evenodd" d="M23.4865 0.0634075C23.3789 0.0981788 20.9912 1.00786 18.1804 2.08484C15.3696 3.16182 10.3849 5.07053 7.10342 6.32636C3.8219 7.58219 0.995934 8.67653 0.823496 8.75825C0.27092 9.02004 -0.0758157 9.43935 0.0141692 9.73708C0.0642478 9.90277 0.278206 10.1121 0.525714 10.2375C0.731848 10.342 6.38158 12.1221 6.54101 12.1328C6.58136 12.1355 9.59512 10.2717 13.2382 7.99093C16.8814 5.71021 19.9341 3.81402 20.0222 3.77724C20.2326 3.68936 20.5491 3.69151 20.6236 3.78135C20.7566 3.94156 21.3374 3.40155 12.6541 11.1917C11.3496 12.3621 10.1782 13.4188 10.051 13.54L9.81969 13.7603L9.62304 16.557C9.51491 18.0952 9.4264 19.4001 9.4264 19.4568C9.4264 19.5491 9.44566 19.5565 9.60979 19.5277C10.0225 19.4551 10.1972 19.325 11.3189 18.2549C11.9322 17.6698 12.6348 16.9945 12.8802 16.7543L13.3264 16.3177L16.2491 18.4586C18.6002 20.1808 19.2332 20.6218 19.4853 20.7133C20.3538 21.0286 20.9029 20.6455 21.1627 19.5429C21.215 19.3212 22.0976 15.2115 23.1243 10.4103C25.1623 0.878945 25.1192 1.11677 24.8956 0.629334C24.8401 0.508295 24.7447 0.357228 24.6837 0.293652C24.4217 0.0207625 23.9179 -0.076118 23.4865 0.0634075Z" fill="white"/>
</svg>

<svg width="25" height="21" fill="none" xmlns="http://www.w3.org/2000/svg"><path fill-rule="evenodd" clip-rule="evenodd" d="M23.486.063c-.107.035-2.495.945-5.306 2.022-2.81 1.077-7.795 2.986-11.077 4.241C3.822 7.582.996 8.676.823 8.758c-.552.262-.899.681-.809.98.05.165.264.374.512.5.206.104 5.856 1.884 6.015 1.895.04.003 3.054-1.861 6.697-4.142 3.643-2.28 6.696-4.177 6.784-4.214.21-.088.527-.085.602.004.133.16.713-.38-7.97 7.41a380.164 380.164 0 0 0-2.603 2.349l-.231.22-.197 2.797a314.022 314.022 0 0 0-.197 2.9c0 .092.02.1.184.07.413-.072.587-.202 1.709-1.272.613-.585 1.316-1.26 1.561-1.5l.446-.437 2.923 2.14c2.351 1.723 2.984 2.164 3.236 2.255.869.316 1.418-.068 1.678-1.17.052-.222.935-4.332 1.961-9.133C25.162.88 25.12 1.117 24.896.63a1.483 1.483 0 0 0-.212-.336c-.262-.273-.766-.37-1.198-.23Z" fill="#fff"/></svg>
